Speka/assets/images/viber.svg

<svg width="25" height="25" viewBox="0 0 25 25" fill="none" xmlns="http://www.w3.org/2000/svg">
<ellipse cx="12.5" cy="12.5025" rx="10.9756" ry="10.9756" fill="white"/>
<path fill-rule="evenodd" clip-rule="evenodd" d="M13.9453 8.74297C14.432 8.84668 14.8051 9.03164 15.1238 9.33008C15.534 9.71738 15.7588 10.1861 15.8576 10.8596C15.9244 11.2986 15.8971 11.4713 15.7414 11.6145C15.5957 11.7477 15.3264 11.7525 15.1633 11.6268C15.0447 11.5379 15.0076 11.4441 14.9805 11.19C14.9484 10.852 14.8891 10.6152 14.7877 10.3957C14.5703 9.92949 14.1873 9.6877 13.54 9.60879C13.2361 9.57168 13.1447 9.5373 13.0459 9.42129C12.8654 9.20664 12.9348 8.85879 13.1842 8.73047C13.2781 8.68359 13.3176 8.67871 13.5252 8.69102C13.6539 8.69844 13.8441 8.7207 13.9453 8.74297ZM13.4191 6.88027C14.9189 7.0998 16.0801 7.79551 16.8412 8.92539C17.2687 9.56191 17.5355 10.3094 17.627 11.1111C17.659 11.4047 17.659 11.94 17.6244 12.0289C17.5922 12.1127 17.4885 12.2262 17.3996 12.273C17.3033 12.3225 17.0982 12.3174 16.9846 12.2582C16.7943 12.1619 16.7375 12.009 16.7375 11.5945C16.7375 10.9557 16.5719 10.282 16.2854 9.75898C15.9592 9.16191 15.4848 8.66855 14.9066 8.32559C14.41 8.02949 13.6762 7.80996 13.0066 7.75566C12.7645 7.73594 12.6311 7.68652 12.5396 7.58047C12.3988 7.42012 12.384 7.20293 12.5025 7.02285C12.6309 6.82363 12.8285 6.79141 13.4191 6.88027ZM7.60039 5.3582C7.68691 5.38789 7.82031 5.45684 7.89687 5.50625C8.36621 5.81719 9.67324 7.48731 10.1008 8.32109C10.3453 8.79727 10.427 9.15 10.3504 9.41152C10.2713 9.69277 10.1404 9.84082 9.55469 10.3119C9.31992 10.5018 9.1 10.6967 9.06543 10.7486C8.97656 10.877 8.90488 11.1285 8.90488 11.3062C8.90742 11.7182 9.17422 12.4658 9.525 13.0406C9.79668 13.4871 10.2834 14.0594 10.7652 14.4986C11.3311 15.0168 11.8301 15.3695 12.3936 15.6482C13.1176 16.0084 13.5598 16.0996 13.8834 15.9492C13.9648 15.9121 14.0514 15.8629 14.0785 15.8406C14.1031 15.8184 14.2936 15.5865 14.501 15.3299C14.9012 14.8266 14.9926 14.7451 15.267 14.6514C15.6154 14.533 15.9711 14.565 16.3295 14.7477C16.6014 14.8883 17.1943 15.2559 17.5772 15.5223C18.0813 15.875 19.1584 16.7533 19.3043 16.9285C19.5611 17.2443 19.6057 17.6488 19.4328 18.0955C19.25 18.5666 18.5385 19.4498 18.0418 19.8273C17.5922 20.1678 17.2734 20.2984 16.8533 20.3182C16.5074 20.3354 16.3641 20.3059 15.9219 20.1232C12.4531 18.6949 9.6834 16.5635 7.48438 13.635C6.33555 12.1055 5.46074 10.5191 4.86289 8.87363C4.51445 7.91406 4.49727 7.49707 4.78379 7.00605C4.90742 6.79883 5.43359 6.28574 5.8166 5.99961C6.4541 5.52598 6.74805 5.35078 6.98281 5.30137C7.14336 5.2668 7.42266 5.29395 7.60039 5.3582ZM13.2486 5.0918C14.0986 5.19785 14.7854 5.40254 15.5391 5.77031C16.2803 6.13301 16.7547 6.47598 17.3822 7.1C17.9703 7.68965 18.2965 8.13613 18.6424 8.8293C19.1242 9.79629 19.3984 10.9461 19.4453 12.2115C19.4627 12.6432 19.4502 12.7395 19.3514 12.8629C19.1637 13.1021 18.751 13.0627 18.6102 12.7937C18.5656 12.7049 18.5533 12.6285 18.5385 12.283C18.5137 11.7525 18.4768 11.4098 18.4025 11.0002C18.1109 9.39414 17.34 8.11133 16.1096 7.19102C15.0842 6.42129 14.0242 6.04629 12.6357 5.96484C12.1662 5.9377 12.0848 5.92051 11.9785 5.83906C11.7809 5.68359 11.7709 5.31855 11.9611 5.14824C12.0773 5.04219 12.1588 5.02734 12.5615 5.03965C12.7719 5.04727 13.0807 5.07207 13.2486 5.0918ZM12.5 0C19.4035 0 25 5.59648 25 12.5C25 19.4035 19.4035 25 12.5 25C5.59648 25 0 19.4035 0 12.5C0 5.59648 5.59648 0 12.5 0Z" fill="#F58220"/>
</svg>

<svg width="25" height="25" fill="none" xmlns="http://www.w3.org/2000/svg"><circle cx="12.5" cy="12.502" fill="#fff" r="10.976"/><path fill-rule="evenodd" clip-rule="evenodd" d="M13.945 8.743c.487.104.86.289 1.179.587.41.387.635.856.734 1.53.066.439.04.611-.117.755-.145.133-.415.137-.578.012-.118-.09-.155-.183-.183-.437-.032-.338-.09-.575-.192-.794-.218-.467-.6-.708-1.248-.787-.304-.037-.395-.072-.494-.188a.46.46 0 01.138-.69c.094-.047.134-.052.341-.04.129.007.32.03.42.052zM13.42 6.88c1.5.22 2.661.916 3.422 2.045.428.637.694 1.384.786 2.186.032.294.032.829-.003.918a.562.562 0 01-.224.244.552.552 0 01-.415-.015c-.19-.096-.247-.249-.247-.663a3.95 3.95 0 00-.453-1.836 3.752 3.752 0 00-1.378-1.433c-.497-.297-1.23-.516-1.9-.57-.242-.02-.376-.07-.467-.176a.45.45 0 01-.037-.557c.128-.2.325-.232.916-.143zM7.6 5.358c.087.03.22.099.297.148.47.311 1.776 1.981 2.204 2.815.244.476.326.829.25 1.09-.08.282-.21.43-.796.9-.235.19-.455.386-.49.438a1.15 1.15 0 00-.16.557c.002.412.27 1.16.62 1.735.272.446.758 1.018 1.24 1.458.566.518 1.065.87 1.629 1.15.724.36 1.166.45 1.49.3.08-.037.167-.086.194-.108.025-.023.216-.255.423-.511.4-.503.492-.585.766-.679.348-.118.704-.086 1.063.097.271.14.864.508 1.247.774.504.353 1.581 1.231 1.727 1.406.257.316.302.72.129 1.168-.183.47-.895 1.354-1.391 1.731-.45.34-.769.471-1.189.491-.346.017-.489-.012-.931-.195-3.469-1.428-6.239-3.56-8.438-6.488-1.148-1.53-2.023-3.116-2.621-4.761-.349-.96-.366-1.377-.08-1.868.124-.207.65-.72 1.034-1.006.637-.474.931-.65 1.166-.699.16-.034.44-.007.617.057zm5.649-.266a6.88 6.88 0 012.29.678c.741.363 1.216.706 1.843 1.33.588.59.915 1.036 1.26 1.73.482.966.756 2.116.803 3.381.018.432.005.528-.094.652-.187.24-.6.2-.74-.07-.045-.088-.058-.164-.073-.51A8.923 8.923 0 0018.402 11c-.291-1.606-1.062-2.889-2.292-3.809-1.026-.77-2.086-1.145-3.474-1.226-.47-.027-.551-.044-.657-.126-.198-.155-.208-.52-.018-.69.116-.107.198-.122.6-.11.21.008.52.033.688.053zM12.5 0C19.404 0 25 5.596 25 12.5S19.404 25 12.5 25 0 19.404 0 12.5 5.596 0 12.5 0z" fill="#F58220"/></svg>
